X:1
T:Tis women makes us love
T:Henry Purcell
%%score [ 1 2 3 4 ]
L:1/8
Q:1/4=80
M:6/4
K:A
V:1 treble nm="I"
V:2 treble nm="II"
V:3 treble nm="III"
V:4 treble nm="IV"
V:1
 A2 | e4 c2 d4 B2 | c6- c4 :| %3
w: Tis|wo- men makes us|love, _|
V:2
 c2 | B4 A2 A4 G2 | A6- A4 :| %3
w: 'tis|Love that makes us|sad, _|
V:3
 A2 | G4 F2 f4 e2 | e6- e4 :| %3
w: 'tis|sad- ness makes us|drink _|
V:4
 e2 | E4 F2 D2 E4 | A,6- A,4 :| %3
w: and|drin- king makes us|mad. _|

